X:1     %Music
T:The Wassail Bough
B:Broadwood, Lucy, 1893, English Country Songs, Leadenhall Press, London
S:H M Bower
Z:Lucy Broadwood
M:6/8     %Meter
L:1/8     %
K:F
F2 A c2 d |c2 A F2 G |A2 A A2 F |G3 z2 z |
w:Here we come a-was-sail-ing, a-mong the leaves of green; 
F2 A c2 d |c2 A F2 G |A2 A G2 G |F3 z2 z |
w:Here we come a-wan-der-ing so fair-ly to be seen. 
c2 A F2 G |A3 A3 |c2 A F2 G |A3 A3 | z2 z
w:Our_ jol-ly was-sail, our_ jol-ly was-sail, 
 A2 B |c3 f2 d |c3 A2 B |c3 f2 d |
w:Love and joy come to you, and to our was-sail 
c3 A2 B |c3 d2 B |A3 G2 G |F3 A2 G | F3
w:bough; Pray God bless you, and send you a hap-py New Year
A2 B |c6-|c2z A2 B |c6-|c2
w:A New Year,_ A New Year,_ 
z A2 B |c3 d2 B |A3 G2 G |F3 A2 G | F3 |]
w:Pray God bless you and send you a hap-py New Year